<?xml version="1.0" encoding="UTF-8"?>
<map version="1.10" tiledversion="1.12.0" orientation="orthogonal" renderorder="right-down" width="12" height="10" tilewidth="64" tileheight="64" infinite="0" nextlayerid="4" nextobjectid="1">
 <tileset firstgid="1" source="../tilesets/tileset5.tsx"/>
 <layer id="1" name="Water" width="12" height="10">
  <data encoding="csv">
34,34,34,34,34,34,34,34,34,34,34,34,
34,34,34,34,34,34,34,34,34,34,34,34,
34,34,34,34,34,34,34,34,34,34,34,34,
34,34,34,34,34,34,34,34,34,34,34,34,
34,34,34,34,34,34,34,34,34,34,34,34,
34,34,34,34,34,34,34,34,34,34,34,34,
34,34,34,34,34,34,34,34,34,34,34,34,
34,34,34,34,34,34,34,34,34,34,34,34,
34,34,34,34,34,34,34,34,34,34,34,34,
34,34,34,34,34,34,34,34,34,34,34,34
</data>
 </layer>
 <layer id="2" name="waterToSand" width="12" height="10">
  <data encoding="csv">
1610612764,24,26,26,26,26,26,26,26,26,27,28,
1610612763,0,0,0,0,0,0,0,0,0,0,2684354584,
1610612762,0,0,0,0,0,0,0,0,0,0,2684354586,
1610612762,0,0,0,0,0,0,0,0,0,0,2684354586,
1610612762,0,0,0,0,0,0,0,0,0,0,2684354586,
1610612762,0,0,0,0,0,0,0,29,0,0,2684354587,
1610612762,0,0,0,0,0,0,0,0,3221225498,3221225498,2684354584,
1610612762,0,0,0,0,0,0,0,0,0,25,2684354586,
1610612760,34,0,0,0,0,0,0,0,0,3221225498,2684354587,
3221225500,3221225499,3221225498,3221225498,3221225498,3221225498,3221225498,3221225498,3221225498,3221225498,3221225496,2684354588
</data>
 </layer>
 <layer id="3" name="sand" width="12" height="10">
  <data encoding="csv">
0,0,0,0,0,0,0,0,0,0,0,0,
0,33,33,33,33,33,33,33,33,33,33,0,
0,33,33,33,33,33,33,33,33,33,33,0,
0,33,33,33,33,33,33,33,33,33,33,0,
0,33,33,33,33,33,33,33,33,33,33,0,
0,33,33,33,33,33,33,33,33,33,33,0,
0,33,33,33,33,33,33,33,33,33,33,0,
0,33,33,33,33,33,33,33,33,33,33,0,
0,33,33,33,33,33,33,33,33,33,33,0,
0,0,0,0,0,0,0,0,0,0,0,0
</data>
 </layer>
</map>
